X: 1406
T: An T-Eas
R: hornpipe
M: 4/4
K: Amajor
|:ed|cdec Aaga|fgaf e_ef=e|dBed cAdc|Be_e=e gfed|
cdec Aaga|fgaf e_ef=e|dBed cAdc|BGcB A2:|
GA|Be~ee cede|_e=efa gefg|agfe _e=efg|fedc BAGA|
Be~ee cede|_e=efa gefg|agfe _e=efa|gfe_e =e/f/e_e=e|
Be~ee cede|_e=efa gefg|agfe _e=efg|fedc BAGA|
Be~ee cede|_e=efa gefg|agfe _e=efa|gfe_e e2z2|

